packages/icons/src/__generated__/nav/svg/nav-borrowProduct-16-inactive.svg

<svg xmlns="http://www.w3.org/2000/svg" fill="#1652F0" viewBox="0 0 16 16"><path d="M3.489.995h9v2h-9v-2Zm0 12h9v2h-9v-2Zm3.9-7h1.2v1.4h1.4v1.2h-1.4v1.4h-1.2v-1.4h-1.4v-1.2h1.4v-1.4Z"/><path d="M.989 11.995v-8h14v8h-14Zm12.4-1.6v-4.8h-10.8v4.8h10.8Z"/></svg>

<svg xmlns="http://www.w3.org/2000/svg" fill="#1652F0" viewBox="0 0 16 16"><path d="M3.5 1h9v2h-9V1Zm0 12h9v2h-9v-2Zm3.9-7h1.2v1.4H10v1.2H8.6V10H7.4V8.6H6V7.4h1.4V6Z"/><path d="M2 12V4h12v8H2Zm10.4-1.6V5.6H3.6v4.8h8.8Z"/></svg>
